lib/flags/bq-se-sint-eustatius.svg

<svg xmlns="http://www.w3.org/2000/svg" fill="none" aria-hidden="true" viewBox="0 0 42 30"><g id="Country=BQ-SE - Sint Eustatius, Size=sm (36x24)" filter="url(#filter0_dd_91_29383)"><g clip-path="url(#clip0_91_29383)"><g id="flag"><mask id="mask0_91_29383" width="36" height="24" x="3" y="2" maskUnits="userSpaceOnUse" style="mask-type:alpha"><rect id="mask" width="36" height="24" x="3" y="2" fill="white"/></mask><g mask="url(#mask0_91_29383)"><g id="contents"><path id="bg" fill="#00268D" fill-rule="evenodd" d="M3 2H39V26H3V2Z" clip-rule="evenodd"/><path id="bg_2" fill="#00268D" stroke="#E31D1C" stroke-width="2" d="M4 3H38V25H4V3Z"/><rect id="Rectangle" width="2.25" height="24" x="19.875" y="2" fill="#E31D1C"/><rect id="Rectangle_2" width="2" height="36" x="3" y="15" fill="#E31D1C" transform="rotate(-90 3 15)"/><path id="Mask" fill="white" stroke="#E31D1C" stroke-width="2" d="M21.4061 8.08619L21 7.90568L20.5939 8.08619L9.34386 13.0862L7.28779 14L9.34386 14.9138L20.5939 19.9138L21 20.0943L21.4061 19.9138L32.6561 14.9138L34.7122 14L32.6561 13.0862L21.4061 8.08619Z"/><mask id="mask1_91_29383" width="34" height="16" x="4" y="6" maskUnits="userSpaceOnUse" style="mask-type:alpha"><path id="Mask_2" fill="white" stroke="white" stroke-width="2" d="M21.4061 8.08619L21 7.90568L20.5939 8.08619L9.34386 13.0862L7.28779 14L9.34386 14.9138L20.5939 19.9138L21 20.0943L21.4061 19.9138L32.6561 14.9138L34.7122 14L32.6561 13.0862L21.4061 8.08619Z"/></mask><g mask="url(#mask1_91_29383)"><path id="Path 452" fill="#059334" d="M16.0599 18C16.3626 18 31.125 18 31.125 18L29.5321 16.7239C29.5321 16.7239 26.3469 14.2005 26.1419 14.0849C25.937 13.9692 25.5983 13.9193 25.213 14.2869C24.8276 14.6544 24.6066 14.0849 24.2858 14.0849C23.965 14.0849 23.8293 14.0849 23.3638 14.5565C22.8983 15.028 21.2219 16.7239 21.2219 16.7239H18.7585C18.7585 16.7239 18.3429 16.4453 18.1061 16.5447C17.8692 16.6441 16.5351 15.4452 16.0599 15.3557C15.5847 15.2661 15.2721 15.6806 15.2721 16.0105C15.2721 16.3404 15.0485 15.7082 14.5938 15.8938C14.1392 16.0794 14.2857 16.5447 14.2857 16.5447C14.2857 16.5447 15.7573 18 16.0599 18Z"/><path id="Star" fill="#FEDA00" fill-rule="evenodd" d="M20.4429 13.3012L19.4008 14L19.7832 12.8457L18.75 12.1391H20.0372L20.4429 11L20.8729 12.1391H22.125L21.1008 12.8457L21.4901 14L20.4429 13.3012Z" clip-rule="evenodd"/></g></g></g></g></g></g><defs><filter id="filter0_dd_91_29383" width="42" height="30" x="0" y="0" color-interpolation-filters="sRGB" filterUnits="userSpaceOnUse"><feFlood flood-opacity="0" result="BackgroundImageFix"/><feColorMatrix in="SourceAlpha" result="hardAlpha" values="0 0 0 0 0 0 0 0 0 0 0 0 0 0 0 0 0 0 127 0"/><feOffset dy="1"/><feGaussianBlur stdDeviation="1"/><feColorMatrix values="0 0 0 0 0.0627451 0 0 0 0 0.0941176 0 0 0 0 0.156863 0 0 0 0.06 0"/><feBlend in2="BackgroundImageFix" result="effect1_dropShadow_91_29383"/><feColorMatrix in="SourceAlpha" result="hardAlpha" values="0 0 0 0 0 0 0 0 0 0 0 0 0 0 0 0 0 0 127 0"/><feOffset dy="1"/><feGaussianBlur stdDeviation="1.5"/><feColorMatrix values="0 0 0 0 0.0627451 0 0 0 0 0.0941176 0 0 0 0 0.156863 0 0 0 0.1 0"/><feBlend in2="effect1_dropShadow_91_29383" result="effect2_dropShadow_91_29383"/><feBlend in="SourceGraphic" in2="effect2_dropShadow_91_29383" result="shape"/></filter><clipPath id="clip0_91_29383"><rect width="36" height="24" x="3" y="2" fill="white" rx="2"/></clipPath></defs></svg>

<svg xmlns="http://www.w3.org/2000/svg" fill="none" aria-hidden="true" viewBox="0 0 42 30"><g filter="url(#a)"><g clip-path="url(#b)"><mask id="c" width="36" height="24" x="3" y="2" maskUnits="userSpaceOnUse" style="mask-type:alpha"><path fill="#fff" d="M3 2h36v24H3z"/></mask><g mask="url(#c)"><path fill="#00268D" fill-rule="evenodd" d="M3 2h36v24H3V2Z" clip-rule="evenodd"/><path fill="#00268D" stroke="#E31D1C" stroke-width="2" d="M4 3h34v22H4V3Z"/><path fill="#E31D1C" d="M19.875 2h2.25v24h-2.25z"/><path fill="#E31D1C" d="M3 15v-2h36v2z"/><path fill="#fff" stroke="#E31D1C" stroke-width="2" d="M21.406 8.086 21 7.906l-.406.18-11.25 5L7.288 14l2.056.914 11.25 5 .406.18.406-.18 11.25-5L34.712 14l-2.056-.914-11.25-5Z"/><mask id="d" width="34" height="16" x="4" y="6" maskUnits="userSpaceOnUse" style="mask-type:alpha"><path fill="#fff" stroke="#fff" stroke-width="2" d="M21.406 8.086 21 7.906l-.406.18-11.25 5L7.288 14l2.056.914 11.25 5 .406.18.406-.18 11.25-5L34.712 14l-2.056-.914-11.25-5Z"/></mask><g mask="url(#d)"><path fill="#059334" d="M16.06 18h15.065l-1.593-1.276s-3.185-2.524-3.39-2.64c-.205-.115-.544-.165-.929.203-.385.367-.606-.202-.927-.202-.321 0-.457 0-.922.471l-2.142 2.168h-2.463s-.416-.279-.653-.18c-.237.1-1.57-1.099-2.046-1.188-.475-.09-.788.325-.788.655s-.223-.303-.678-.117c-.455.185-.308.65-.308.65S15.757 18 16.06 18Z"/><path fill="#FEDA00" fill-rule="evenodd" d="M20.443 13.301 19.4 14l.382-1.154-1.033-.707h1.287L20.443 11l.43 1.14h1.252l-1.024.706.39 1.154-1.048-.699Z" clip-rule="evenodd"/></g></g></g></g><defs><clipPath id="b"><rect width="36" height="24" x="3" y="2" fill="#fff" rx="2"/></clipPath><filter id="a" width="42" height="30" x="0" y="0" color-interpolation-filters="sRGB" filterUnits="userSpaceOnUse"><feFlood flood-opacity="0" result="BackgroundImageFix"/><feColorMatrix in="SourceAlpha" result="hardAlpha" values="0 0 0 0 0 0 0 0 0 0 0 0 0 0 0 0 0 0 127 0"/><feOffset dy="1"/><feGaussianBlur stdDeviation="1"/><feColorMatrix values="0 0 0 0 0.0627451 0 0 0 0 0.0941176 0 0 0 0 0.156863 0 0 0 0.06 0"/><feBlend in2="BackgroundImageFix" result="effect1_dropShadow_91_29383"/><feColorMatrix in="SourceAlpha" result="hardAlpha" values="0 0 0 0 0 0 0 0 0 0 0 0 0 0 0 0 0 0 127 0"/><feOffset dy="1"/><feGaussianBlur stdDeviation="1.5"/><feColorMatrix values="0 0 0 0 0.0627451 0 0 0 0 0.0941176 0 0 0 0 0.156863 0 0 0 0.1 0"/><feBlend in2="effect1_dropShadow_91_29383" result="effect2_dropShadow_91_29383"/><feBlend in="SourceGraphic" in2="effect2_dropShadow_91_29383" result="shape"/></filter></defs></svg>
